X:1
T: Monday Reel
C:
R:Reel
Q: 232
K:G
M:4/4
L:1/8
|:DG BG EG cE|FA dc BA GF|EG cE DG BG|AB AG GF ED|
DG BG EG cE|FA dc BA GF|E2 cA FD dc|B2 G2 G2 Bc|
dc Bc dB ed|cB AB cA dc|BA GA BG cB|AB ^cA d2 B=c|
dc Bc dB ed|cB AB cA dc|BA GF E2 cA|FD EF G2:|
